X: 1
P: John Lover's Gone
C: from Bob Mills "Tripping up Stairs"
C: arr. T. Traub 9-19-2006
M: 4/4
L: 1/8
K: G
|: D2 |"G"G2 G2 B3 B|"C"c2 c2 "D"d2 D2|"G"G2 G2 B d3 d|"C"c2 B2 "D"A2 D2|"G"G2 G2 B3 B|
"Am"c2 c2 "G"d2 d2|"C"de d2 "D"cB A2|"G"G4-G2 :||: ef|"G"gf g2 "D"ag a2 |"G"b2 b2 d3 d|
"Am"c2 c2 "G"BA B2|"C"cB c2 "D"d2 ef|"G"gf g2 "D"ag a2 |"G"b2 b2 d3 d|"C"cBAc "G"BAGB |"D"AG F2 "G"G2 :|
